<?xml version="1.0" encoding="UTF-8"?>
<map version="1.11" tiledversion="1.12.2" orientation="orthogonal" renderorder="right-down" width="12" height="12" tilewidth="32" tileheight="32" infinite="0" nextlayerid="2" nextobjectid="1">
 <tileset firstgid="1" source="../public/assets/Tiled_Examples/Tilesets/Tileset_Dungeon.tsx"/>
 <layer id="1" name="Walls" width="12" height="12">
  <data encoding="csv">
0,0,0,0,0,0,0,0,0,0,0,0,
0,0,0,0,0,0,0,0,0,0,0,0,
0,0,1,2,2,2,2,2,2,6,0,0,
0,0,13,14,14,14,14,14,14,18,0,0,
0,0,13,14,14,14,14,14,14,18,0,0,
0,0,13,14,14,14,14,14,14,18,0,0,
0,0,13,14,14,14,14,14,14,18,0,0,
0,0,13,14,14,14,14,14,14,18,0,0,
0,0,13,14,14,14,14,14,14,18,0,0,
0,0,49,50,50,50,50,50,50,54,0,0,
0,0,0,0,0,0,0,0,0,0,0,0,
0,0,0,0,0,0,0,0,0,0,0,0
</data>
 </layer>
</map>
