<?xml version="1.0" encoding="UTF-8"?>
<map version="1.10" tiledversion="1.12.2" orientation="orthogonal" renderorder="right-down" width="15" height="15" tilewidth="32" tileheight="32" infinite="0" nextlayerid="9" nextobjectid="113">
 <tileset firstgid="1" source="Tilesets/Tileset_Dungeon.tsx"/>
 <tileset firstgid="109" source="Tilesets/Props_Animated.tsx"/>
 <tileset firstgid="144" source="Tilesets/Objects_Overlay.tsx"/>
 <tileset firstgid="164" source="Tilesets/Items_Animated.tsx"/>
 <tileset firstgid="172" source="Tilesets/Items_Static.tsx"/>
 <tileset firstgid="181" source="Tilesets/Props_Static.tsx"/>
 <layer id="1" name="Floor" width="15" height="15">
  <data encoding="csv">
38,38,38,38,38,38,38,38,38,38,38,38,38,38,38,
38,38,38,38,38,38,38,38,38,38,38,38,38,38,38,
38,38,38,38,38,38,38,38,38,38,38,38,38,38,38,
38,38,38,38,38,38,38,38,38,38,38,41,38,38,38,
38,38,38,38,38,38,38,38,38,38,38,38,38,38,38,
38,38,38,38,38,38,38,38,38,38,38,38,38,38,38,
38,38,38,38,38,38,38,38,38,38,38,38,38,38,38,
38,38,38,38,38,38,38,38,38,38,38,38,38,38,38,
38,38,38,38,38,38,38,38,38,38,38,38,26,38,38,
38,38,38,38,38,38,38,38,38,38,38,38,38,38,38,
38,38,38,38,38,38,38,38,38,38,38,38,38,38,38,
38,38,38,38,38,38,38,38,38,38,38,38,38,38,38,
38,38,38,38,38,38,38,38,38,38,38,38,38,38,38,
38,38,38,38,38,38,38,38,38,38,38,38,38,38,38,
38,38,38,38,38,38,38,38,38,38,38,38,38,38,38
</data>
 </layer>
 <layer id="8" name="Walls" width="15" height="15">
  <data encoding="csv">
0,0,0,0,0,0,0,0,0,7,9,0,0,0,0,
0,0,0,0,0,0,0,0,7,54,21,0,0,0,0,
0,0,7,8,9,0,0,7,54,20,21,0,0,0,0,
0,0,19,20,21,0,0,19,20,20,49,9,0,0,0,
0,0,31,32,33,0,0,31,32,6,20,21,0,0,0,
0,0,0,0,0,0,0,0,0,31,32,33,0,0,0,
0,0,0,0,0,0,0,0,0,0,0,0,0,0,0,
0,32,0,0,0,0,0,0,7,9,0,0,0,0,0,
0,0,0,7,9,0,0,0,34,24,8,9,0,0,0,
0,0,0,31,33,0,0,0,0,31,6,21,0,0,0,
0,0,0,0,0,0,7,9,0,0,6,49,9,0,0,
0,0,0,0,0,0,19,21,0,0,31,32,33,0,0,
0,0,0,0,0,0,31,33,0,0,0,0,0,0,0,
0,0,0,0,0,0,0,0,0,0,0,0,0,0,0,
0,0,0,0,0,0,0,0,0,0,0,0,0,0,0
</data>
 </layer>
 <layer id="6" name="Props Layer" width="15" height="15" visible="0" locked="1">
  <data encoding="csv">
0,0,0,0,0,0,0,0,0,0,0,0,0,0,0,
0,0,0,0,0,0,0,0,0,0,0,0,0,0,0,
0,0,0,0,0,0,0,0,0,0,0,0,0,0,0,
0,0,0,0,0,0,0,0,0,0,0,0,0,0,0,
0,0,0,0,0,0,0,0,0,0,0,0,0,0,0,
0,0,0,0,0,0,0,0,0,0,0,0,0,0,0,
0,0,0,0,0,0,0,0,0,0,0,0,0,0,0,
0,0,0,0,0,0,0,0,0,0,0,0,0,0,0,
0,0,0,0,0,0,0,0,0,0,0,0,0,0,0,
0,0,0,0,0,0,0,0,0,0,0,0,0,0,0,
0,0,0,0,0,0,0,0,0,0,0,0,0,0,0,
0,0,0,0,0,0,0,0,0,0,0,0,0,0,0,
0,0,0,0,0,0,0,0,0,0,0,0,0,0,0,
0,0,0,0,0,0,0,0,0,0,0,0,0,0,0,
0,0,0,0,0,0,0,0,0,0,0,0,0,0,0
</data>
 </layer>
 <objectgroup id="7" name="Shadows Layer" visible="0" locked="1"/>
 <objectgroup id="4" name="Overlay Layer" visible="0" locked="1"/>
 <objectgroup id="5" name="Items Layer" visible="0" locked="1"/>
</map>
